X:931
T:Tommy Bhetty's waltz
R:Waltz
O:Ireland
D:Altan: The Red Crow
Z:id:hn-waltz-5
S:A compilation from various sources
Z:Transcription:???, arrangement:Altan?, chords:Mike Long
M:3/4
L:1/8
K:G
D2|:\
"G"G2 GB dB|G2 GB dB|d2 b3 a|"C"ga fg ef|\
"G"G2 GB dB|G2 GB dB|"D"D2 F2 A2|"C"c2 (3(BcB) A2|
"G"G2 GB dB|G2 GB dB|d2 b3 a|"C"ga fg ef|\
"G"dg3 Bc|"D"d3 c AF|"G"G2 B2 "D"BA|[1 "G"G4 D2:|[2 "G"G3 g fg|]
|:"D"a2 f2 d2|A2 F2 D2|"C"C2 b3 a|ga fg ef|\
"G"d3 e d2|B3 A B2|"D"D2 F2 A2|"C"c2 (3(BcB) A2|
"G"d2 Bc dB|d2b2 af|g2 b3 a|"C"ga fg ef|\
"G"dg3 Bc|"D"d3 c AF|"G"G2 B2 "D"BA|[1 "G"G3 g fg:|[2 "G"G4|]
